assets/icons/qvision/all_inbox.svg

<svg xmlns="http://www.w3.org/2000/svg" height="24" viewBox="0 0 24 24" width="24"><path d="M0 0h24v24H0V0z" fill="none"/><path d="M19 3H5c-1.1 0-2 .9-2 2v7c0 1.1.9 2 2 2h14c1.1 0 2-.9 2-2V5c0-1.1-.9-2-2-2zm0 6h-4c0 1.62-1.38 3-3 3s-3-1.38-3-3H5V5h14v4zm-4 7h6v3c0 1.1-.9 2-2 2H5c-1.1 0-2-.9-2-2v-3h6c0 1.66 1.34 3 3 3s3-1.34 3-3z"/></svg>

<svg width="24" height="24" viewBox="0 0 24 24" fill="none" xmlns="http://www.w3.org/2000/svg">
<g clip-path="url(#clip0_147_3863)">
<path d="M19 3H5C3.9 3 3 3.9 3 5V12C3 13.1 3.9 14 5 14H19C20.1 14 21 13.1 21 12V5C21 3.9 20.1 3 19 3ZM19 9H15C15 10.62 13.62 12 12 12C10.38 12 9 10.62 9 9H5V5H19V9ZM15 16H21V19C21 20.1 20.1 21 19 21H5C3.9 21 3 20.1 3 19V16H9C9 17.66 10.34 19 12 19C13.66 19 15 17.66 15 16Z" fill="#323232"/>
</g>
<defs>
<clipPath id="clip0_147_3863">
<rect width="24" height="24" fill="white"/>
</clipPath>
</defs>
</svg>
